!!!!SEGMENT: pl-cz--ii-8--002_stefani-jozef--requiem-dzieln-ow-dzieln-traba-dziwnym-gllosem-ryknie.krn
!!!cenid: 18xx:1060
!!!COM: Stefani, Józef
!!!COM-rismid: pe30024097
!!!CDT: 1800/04/16-1876/03/19
!!!CNT: Polish
!!!OPR: Requiem
!!!OTL: Dzień ów dzień - Trąba dziwnym głosem ryknie
!!!OMV: 002
!!!PDT:
!!!AGN: Sacred; Requiem
!!!SMS-siglum: PL-CZ
!!!SMS-shelfmark: II-8
!!!SMS-shelfwork: 001-002 M
!!!SMS-variant:
!!!SMS-altvar:
!!!NIFC-rismid: 300001272
!!!URL-scan: http://repozytorium.nifc.pl/skany/pl-cz-nut--ii-8
!!!ONB-nifc: UWAGA: części Requiem: Racz wiekuisty pokój, Dzień ów dzień – Trąba dziwnym głosem ryknie, Chryste Jezu, Święty, Baranku Boży
!!!key: c
**kern	**fba	**kern	**dynam	**kern	**text	**text	**kern	**text	**text	**kern	**text	**text	**kern	**text	**text
*part5	*part5	*part5	*part5	*part4	*part4	*part4	*part3	*part3	*part3	*part2	*part2	*part2	*part1	*part1	*part1
*staff6	*staff6	*staff5	*	*staff4	*staff4	*staff4	*staff3	*staff3	*staff3	*staff2	*staff2	*staff2	*staff1	*staff1	*staff1
*	*	*	*	*	*verse1	*verse2	*	*verse1	*verse2	*	*verse1	*verse2	*	*verse1	*verse2
*	*	*	*	*group1	*	*	*group1	*	*	*group1	*	*	*group1	*	*
*I"Organo.	*	*	*	*I"Baſso	*	*	*I"Tenore.	*	*	*I"Sorpano 2do	*	*	*I"Sorpano 1mo	*	*
*I'org	*	*	*	*I'B	*	*	*I'T	*	*	*I'S 2	*	*	*I'S 1	*	*
*Iorgan	*	*	*	*Ibass	*	*	*Itenor	*	*	*Isoprn	*	*	*Isoprn	*	*
*ICklav	*	*	*	*ICvox	*	*	*ICvox	*	*	*ICvox	*	*	*ICvox	*	*
*IGcont	*	*	*	*IGcoro	*	*	*IGcoro	*	*	*IGcoro	*	*	*IGcoro	*	*
*clefF4	*	*clefG2	*	*clefF4	*	*	*clefC4	*	*	*clefC1	*	*	*clefC1	*	*
*k[b-e-a-]	*	*k[b-e-a-]	*	*k[b-e-a-]	*	*	*k[b-a-e-]	*	*	*k[e-a-b-]	*	*	*k[b-e-a-]	*	*
*c:	*	*c:	*	*c:	*	*	*c:	*	*	*c:	*	*	*c:	*	*
*M2/2	*	*M2/2	*	*M2/2	*	*	*M2/2	*	*	*M2/2	*	*	*M2/2	*	*
*met(c|)	*	*met(c|)	*	*met(c|)	*	*	*met(c|)	*	*	*met(c|)	*	*	*met(c|)	*	*
=1	=1	=1	=1	=1	=1	=1	=1	=1	=1	=1	=1	=1	=1	=1	=1
*	*	*	*	*	*	*	*2\right	*	*	*	*	*	*2\right	*	*
!LO:TX:t=P:problem=kolejność znaków BB- E- A-	!	!LO:TX:a:B:t=Adagio.	!	!LO:TX:a:B:t=Adagio	!	!	!LO:TX:a:B:t=Adagio	!	!	!LO:TX:a:B:t=Adagio	!	!	!LO:TX:a:B:t=Adagio	!	!
2C/	.	2dd 2g 2e-/	.	2C/	Dzień	Trą-	2c\	Dzień	Trą-	2e-/	Dzień	Trą-	2cc\	Dień	Trą-
2C/	.	2g 2e-/	.	2E-/	ow	-ba	2G/	ow	-ba	2g/	ow	-ba	2g\	ow	-ba
=2	=2	=2	=2	=2	=2	=2	=2	=2	=2	=2	=2	=2	=2	=2	=2
*	*	*^	*	*	*	*	*	*	*	*	*	*	*	*	*
*2\right	*	*2\right	*	*	*2\right	*	*	*	*	*	*	*	*	*	*	*
2.F\	.	2ee-/	2.a-\	.	2F\	dzien	dzi-	2c\	dzien	dzi-	2a-/	dzien	dzi-	2ee-\	dzien	dzi-
.	.	4dd/	.	.	4F\	gnie-	-w[n]ẏm	4d\	gnie-	-wnẏm	4a-/	gnie-	-wnẏm	4dd\	gnie-	-wnẏm
4F#X\	.	4cc/	4an\	.	4F#X\	-wu	gło-	4e-\	-wu	gło-	4an/	-wu	gło-	4cc\	-wu	gło-
*	*	*v	*v	*	*	*	*	*	*	*	*	*	*	*	*	*
=3	=3	=3	=3	=3	=3	=3	=3	=3	=3	=3	=3	=3	=3	=3	=3
*^	*	*	*	*	*	*	*	*	*	*	*	*	*	*	*
1G	2G\	.	2.bn 2.f 2.d/	.	2.G\	Bo-	-sem	2.d\	Bo-	-sem	2.f/	Bo-	-sem	2.bn\	Bo-	-sem
.	2GG\	.	.	.	.	.	.	.	.	.	.	.	.	.	.	.
.	.	.	4b 4f 4d/	.	4G\	-że-	rẏ-	4d\	-że-	rẏ-	4f/	-że-	rẏ-	4b\	-że-	rẏ-
!	!	!	!	!	!	!	!	!LO:LB:g=original	!	!	!LO:LB:g=original	!	!	!	!	!
=4	=4	=4	=4	=4	=4	=4	=4	=4	=4	=4	=4	=4	=4	=4	=4	=4
2G/	2C\	.	2cc 2e-/	.	2C/	-go	-knie	2c\	-go	-knie	2e-/	-go	-knie	2cc\	-go	-knie
2r	2ryy	.	2r	.	2r	.	.	2r	.	.	2r	.	.	2r	.	.
*v	*v	*	*	*	*	*	*	*	*	*	*	*	*	*	*	*
!	!	!	!	!LO:LB:g=original	!	!	!	!	!	!	!	!	!LO:LB:g=original	!	!
=5	=5	=5	=5	=5	=5	=5	=5	=5	=5	=5	=5	=5	=5	=5	=5
2Bn\	.	2dd\	.	2Bn\	Zni-	J	2d\	Zni-	J	2g/	Zni-	J	2dd\	Zni-	J
2c\	.	4ee-\	.	4c\	-szczẏ	gro-	4G/	-szczẏ	gro-	4e-/	-szczẏ	gro-	4ee-\	-szczẏ	gro-
.	.	4ee-\	.	4c\	bẏt	-bẏ	4G/	byt	-bẏ	4e-/	byt	-bẏ	4ee-\	byt	-bẏ
=6	=6	=6	=6	=6	=6	=6	=6	=6	=6	=6	=6	=6	=6	=6	=6
*	*	*^	*	*	*	*	*	*	*	*	*	*	*	*	*
2A-X\	.	2ee-/	2cc\	.	2A-\	Swia-	Kro-	2e-\	Swia-	Kro-	2e-/	Swia-	Kro-	2cc\	Swia-	Kro-
4F\	.	2dd 2cc/	4a-\	.	(4F\	-ta	-lestw	(4d\	-ta	-lestw	2d/	-ta	-lestw	(4dd\	-ta	-lestw
4F#X\	.	.	4an\	.	4F#X\)	.	.	4c\)	.	.	.	.	.	4cc\)	.	.
*	*	*v	*v	*	*	*	*	*	*	*	*	*	*	*	*	*
=7	=7	=7	=7	=7	=7	=7	=7	=7	=7	=7	=7	=7	=7	=7	=7
2G\	.	2.dd 2.bn 2.f/	.	2.G\	ca-	prze-	2.d\	ca-	prze-	2.f/	ca-	prze-	2.bn\	ca-	prze-
2GG/	.	.	.	.	.	.	.	.	.	.	.	.	.	.	.
.	.	4dd 4b 4f/	.	4G\	-łe-	-ni-	4d\	-łe-	-ni-	4f/	-łe-	-ni-	4b\	-łe-	-ni-
=8	=8	=8	=8	=8	=8	=8	=8	=8	=8	=8	=8	=8	=8	=8	=8
2C/	.	2cc 2e-/	.	2C/	-go	-knie	2c\	-go	-knie	2e-/	-go	-knie	2cc\	-go	-knie
2r	.	2r	.	2r	.	.	2r	.	.	2r	.	.	2r	.	.
!LO:LB:g=original	!	!LO:LB:g=original	!	!LO:LB:g=original	!	!	!LO:LB:g=original	!	!	!LO:LB:g=original	!	!	!	!	!
=9	=9	=9	=9	=9	=9	=9	=9	=9	=9	=9	=9	=9	=9	=9	=9
2E-/	.	2b- 2g/	.	2E-\	Swiat-	Zwo-	2e-\	Swiat-	Zwo-	2g/	Swiat-	Zwo-	2b-\	Swiat-	Zwo-
2D 2BB-/	.	2b- 2f/	.	2B-\	-kiem	-łu-	2d\	-kiem	-łu-	2f/	-kiem	-łu-	2b-\	-kiem	-łu-
!	!	!	!	!	!	!	!	!	!	!	!	!	!LO:LB:g=original	!	!
=10	=10	=10	=10	=10	=10	=10	=10	=10	=10	=10	=10	=10	=10	=10	=10
2C/	.	2a- 2e-/	.	2c\	Da-	-iąc	2c\	Da-	-iąc	2e-/	da-	-iąc	2a-\	Da-	-iąc
2BB-/	.	2g 2e-/	.	2G\	-wid	wszẏst-	2B-\	-wid	wszẏst-	2e-/	-wid	wszẏst-	2g\	-wid	wszẏst-
=11	=11	=11	=11	=11	=11	=11	=11	=11	=11	=11	=11	=11	=11	=11	=11
*	*	*^	*	*	*	*	*	*	*	*	*	*	*	*	*
*	*	*	*^	*	*	*	*	*	*	*	*	*	*	*	*	*
2AA-/	.	2.f/	2e-\	2c\	.	2A-\	z Pro-	-kich	2c\	z Pro-	-kich	2e-/	z Pro-	-kich	2.f/	z Pro-	-kich
2BB-/	.	.	2d\	4B-\	.	2B-\	-ro-	do	(4B-\	-ro-	do	2d/	-ro-	do	.	.	.
.	.	4f/	.	4A-\	.	.	.	.	4A-\)	.	.	.	.	.	4f/	-ro-	do
*	*	*v	*v	*v	*	*	*	*	*	*	*	*	*	*	*	*	*
=12	=12	=12	=12	=12	=12	=12	=12	=12	=12	=12	=12	=12	=12	=12	=12
*^	*	*	*	*	*	*	*	*	*	*	*	*	*	*	*
2G/	2E-\	.	2e-/	.	2E-\	-ki-	Są-	2G/	-ki-	Są-	2e-/	-ki-	Są-	2e-/	-ki-	Są-
4G/	4E-\	.	4e-/	.	4E-\	-nią	-du	4G/	-nią	-du	4e-/	-nią	-du	4e-/	-nią	-du
4r	4ryy	.	4r	.	4r	.	.	4r	.	.	4r	.	.	4r	.	.
*v	*v	*	*	*	*	*	*	*	*	*	*	*	*	*	*	*
!	!	!	!	!LO:LB:g=original	!	!	!LO:LB:g=original	!	!	!LO:LB:g=original	!	!	!	!	!
=13	=13	=13	=13	=13	=13	=13	=13	=13	=13	=13	=13	=13	=13	=13	=13
(16C/LL	.	2g 2en/	.	2C/	Ja-	Zdu-	2c\	Ja-	Zdu-	2en/	Ja-	Zdu-	2g/	Ja-	Zdu-
16BBn/	.	.	.	.	.	.	.	.	.	.	.	.	.	.	.
16C/	.	.	.	.	.	.	.	.	.	.	.	.	.	.	.
16BB/JJ)	.	.	.	.	.	.	.	.	.	.	.	.	.	.	.
*rep	*	*	*	*	*	*	*	*	*	*	*	*	*	*	*
(16C/LL	.	.	.	.	.	.	.	.	.	.	.	.	.	.	.
16BB/	.	.	.	.	.	.	.	.	.	.	.	.	.	.	.
16C/	.	.	.	.	.	.	.	.	.	.	.	.	.	.	.
16BB/JJ)	.	.	.	.	.	.	.	.	.	.	.	.	.	.	.
*Xrep	*	*	*	*	*	*	*	*	*	*	*	*	*	*	*
*rep	*	*	*	*	*	*	*	*	*	*	*	*	*	*	*
(16C/LL	.	2g 2e/	.	2C/	-ki	-mi	2c\	-ki	-mi	2e/	-ki	-mi	2g/	-ki	-mi
16BB/	.	.	.	.	.	.	.	.	.	.	.	.	.	.	.
16C/	.	.	.	.	.	.	.	.	.	.	.	.	.	.	.
16BB/JJ)	.	.	.	.	.	.	.	.	.	.	.	.	.	.	.
*Xrep	*	*	*	*	*	*	*	*	*	*	*	*	*	*	*
*rep	*	*	*	*	*	*	*	*	*	*	*	*	*	*	*
(16C/LL	.	.	.	.	.	.	.	.	.	.	.	.	.	.	.
16BB/	.	.	.	.	.	.	.	.	.	.	.	.	.	.	.
16C/	.	.	.	.	.	.	.	.	.	.	.	.	.	.	.
16BB/JJ)	.	.	.	.	.	.	.	.	.	.	.	.	.	.	.
*Xrep	*	*	*	*	*	*	*	*	*	*	*	*	*	*	*
=14	=14	=14	=14	=14	=14	=14	=14	=14	=14	=14	=14	=14	=14	=14	=14
(16C/LL	.	2a- 2f/	.	2C/	strach	się	2c\	strach	się	2f/	strach	się	2a-/	strach	się
16BBn/	.	.	.	.	.	.	.	.	.	.	.	.	.	.	.
16C/	.	.	.	.	.	.	.	.	.	.	.	.	.	.	.
16BB/JJ)	.	.	.	.	.	.	.	.	.	.	.	.	.	.	.
*rep	*	*	*	*	*	*	*	*	*	*	*	*	*	*	*
(16C/LL	.	.	.	.	.	.	.	.	.	.	.	.	.	.	.
16BB/	.	.	.	.	.	.	.	.	.	.	.	.	.	.	.
16C/	.	.	.	.	.	.	.	.	.	.	.	.	.	.	.
16BB/JJ)	.	.	.	.	.	.	.	.	.	.	.	.	.	.	.
*Xrep	*	*	*	*	*	*	*	*	*	*	*	*	*	*	*
*rep	*	*	*	*	*	*	*	*	*	*	*	*	*	*	*
(16C/LL	.	2a- 2f/	.	2C/	po-	Smie[r]c	2c\	po-	Smierc	2f/	po-	Smierc	2a-/	po-	Smierc
16BB/	.	.	.	.	.	.	.	.	.	.	.	.	.	.	.
16C/	.	.	.	.	.	.	.	.	.	.	.	.	.	.	.
16BB/JJ)	.	.	.	.	.	.	.	.	.	.	.	.	.	.	.
*Xrep	*	*	*	*	*	*	*	*	*	*	*	*	*	*	*
*rep	*	*	*	*	*	*	*	*	*	*	*	*	*	*	*
(16C/LL	.	.	.	.	.	.	.	.	.	.	.	.	.	.	.
16BB/	.	.	.	.	.	.	.	.	.	.	.	.	.	.	.
16C/	.	.	.	.	.	.	.	.	.	.	.	.	.	.	.
16BB/JJ)	.	.	.	.	.	.	.	.	.	.	.	.	.	.	.
*Xrep	*	*	*	*	*	*	*	*	*	*	*	*	*	*	*
!	!	!	!	!	!	!	!	!	!	!	!	!	!LO:LB:g=original	!	!
=15	=15	=15	=15	=15	=15	=15	=15	=15	=15	=15	=15	=15	=15	=15	=15
(16C/LL	.	2b- 2g/	.	2C/	-wsta-	przẏ-	2.en\	-wsta-	przẏ-	2g/	-wsta-	przẏ-	2b-\	-wsta-	przẏ-
16BBn/	.	.	.	.	.	.	.	.	.	.	.	.	.	.	.
16C/	.	.	.	.	.	.	.	.	.	.	.	.	.	.	.
16BB/JJ)	.	.	.	.	.	.	.	.	.	.	.	.	.	.	.
*rep	*	*	*	*	*	*	*	*	*	*	*	*	*	*	*
(16C/LL	.	.	.	.	.	.	.	.	.	.	.	.	.	.	.
16BB/	.	.	.	.	.	.	.	.	.	.	.	.	.	.	.
16C/	.	.	.	.	.	.	.	.	.	.	.	.	.	.	.
16BB/JJ)	.	.	.	.	.	.	.	.	.	.	.	.	.	.	.
*Xrep	*	*	*	*	*	*	*	*	*	*	*	*	*	*	*
*rep	*	*	*	*	*	*	*	*	*	*	*	*	*	*	*
(16C/LL	.	2b- 2g/	.	2C/	-nie	-ro-	.	.	.	2g/	-nie	-ro-	2b-\	-nie	-ro-
16BB/	.	.	.	.	.	.	.	.	.	.	.	.	.	.	.
16C/	.	.	.	.	.	.	.	.	.	.	.	.	.	.	.
16BB/JJ)	.	.	.	.	.	.	.	.	.	.	.	.	.	.	.
*Xrep	*	*	*	*	*	*	*	*	*	*	*	*	*	*	*
*rep	*	*	*	*	*	*	*	*	*	*	*	*	*	*	*
(16C/LL	.	.	.	.	.	.	4e\	-nie	-ro-	.	.	.	.	.	.
16BB/	.	.	.	.	.	.	.	.	.	.	.	.	.	.	.
16C/	.	.	.	.	.	.	.	.	.	.	.	.	.	.	.
16BB/JJ)	.	.	.	.	.	.	.	.	.	.	.	.	.	.	.
*Xrep	*	*	*	*	*	*	*	*	*	*	*	*	*	*	*
=16	=16	=16	=16	=16	=16	=16	=16	=16	=16	=16	=16	=16	=16	=16	=16
(16C/LL	.	2a- 2f/	.	2C/	wszę-	-dze-	2f\	wszę-	-dze-	2f/	wszę-	-dze-	2a-\	wszę-	-dze-
16BBn/	.	.	.	.	.	.	.	.	.	.	.	.	.	.	.
16C/	.	.	.	.	.	.	.	.	.	.	.	.	.	.	.
16BB/JJ)	.	.	.	.	.	.	.	.	.	.	.	.	.	.	.
*rep	*	*	*	*	*	*	*	*	*	*	*	*	*	*	*
(16C/LL	.	.	.	.	.	.	.	.	.	.	.	.	.	.	.
16BB/	.	.	.	.	.	.	.	.	.	.	.	.	.	.	.
16C/	.	.	.	.	.	.	.	.	.	.	.	.	.	.	.
16BB/JJ)	.	.	.	.	.	.	.	.	.	.	.	.	.	.	.
*Xrep	*	*	*	*	*	*	*	*	*	*	*	*	*	*	*
*rep	*	*	*	*	*	*	*	*	*	*	*	*	*	*	*
(16C/LL	.	2a- 2f/	.	2C/	-dzie	-nie	2F/	-dzie	-nie	2f/	-dzie	-nie	2a-\	-dzie	-nie
16BB/	.	.	.	.	.	.	.	.	.	.	.	.	.	.	.
16C/	.	.	.	.	.	.	.	.	.	.	.	.	.	.	.
16BB/JJ)	.	.	.	.	.	.	.	.	.	.	.	.	.	.	.
*Xrep	*	*	*	*	*	*	*	*	*	*	*	*	*	*	*
16C/LL	.	.	.	.	.	.	.	.	.	.	.	.	.	.	.
16BB/	.	.	.	.	.	.	.	.	.	.	.	.	.	.	.
16C/	.	.	.	.	.	.	.	.	.	.	.	.	.	.	.
16C-X/JJ	.	.	.	.	.	.	.	.	.	.	.	.	.	.	.
=17	=17	=17	=17	=17	=17	=17	=17	=17	=17	=17	=17	=17	=17	=17	=17
16BB-/LL	.	2f 2d/	.	2BB-/	kie-	sko-	2B-\	kie-	Sko-	2d/	kie-	Sko-	2f/	kie-	sko-
16AAn/	.	.	.	.	.	.	.	.	.	.	.	.	.	.	.
16BB-/	.	.	.	.	.	.	.	.	.	.	.	.	.	.	.
16AA/JJ	.	.	.	.	.	.	.	.	.	.	.	.	.	.	.
*rep	*	*	*	*	*	*	*	*	*	*	*	*	*	*	*
16BB-/LL	.	.	.	.	.	.	.	.	.	.	.	.	.	.	.
16AA/	.	.	.	.	.	.	.	.	.	.	.	.	.	.	.
16BB-/	.	.	.	.	.	.	.	.	.	.	.	.	.	.	.
16AA/JJ	.	.	.	.	.	.	.	.	.	.	.	.	.	.	.
*Xrep	*	*	*	*	*	*	*	*	*	*	*	*	*	*	*
*rep	*	*	*	*	*	*	*	*	*	*	*	*	*	*	*
16BB-/LL	.	2f 2d/	.	2BB-/	-dẏ	-ro	2B-\	-dẏ	-ro	2d/	-dẏ	-ro	2f/	-dẏ	-ro
16AA/	.	.	.	.	.	.	.	.	.	.	.	.	.	.	.
16BB-/	.	.	.	.	.	.	.	.	.	.	.	.	.	.	.
16AA/JJ	.	.	.	.	.	.	.	.	.	.	.	.	.	.	.
*Xrep	*	*	*	*	*	*	*	*	*	*	*	*	*	*	*
*rep	*	*	*	*	*	*	*	*	*	*	*	*	*	*	*
16BB-/LL	.	.	.	.	.	.	.	.	.	.	.	.	.	.	.
16AA/	.	.	.	.	.	.	.	.	.	.	.	.	.	.	.
16BB-/	.	.	.	.	.	.	.	.	.	.	.	.	.	.	.
16AA/JJ	.	.	.	.	.	.	.	.	.	.	.	.	.	.	.
*Xrep	*	*	*	*	*	*	*	*	*	*	*	*	*	*	*
!LO:PB:g=original	!	!LO:PB:g=original	!	!LO:LB:g=original	!	!	!LO:LB:g=original	!	!	!LO:LB:g=original	!	!	!	!	!
=18	=18	=18	=18	=18	=18	=18	=18	=18	=18	=18	=18	=18	=18	=18	=18
(16BB-/LL	.	2g 2e-/	.	2BB-/	Sę-	po-	2B-\	Sę-	po-	2e-/	Sę-	po-	2g\	Sę-	po-
16AAn/	.	.	.	.	.	.	.	.	.	.	.	.	.	.	.
16BB-/	.	.	.	.	.	.	.	.	.	.	.	.	.	.	.
16AA/JJ)	.	.	.	.	.	.	.	.	.	.	.	.	.	.	.
*rep	*	*	*	*	*	*	*	*	*	*	*	*	*	*	*
(16BB-/LL	.	.	.	.	.	.	.	.	.	.	.	.	.	.	.
16AA/	.	.	.	.	.	.	.	.	.	.	.	.	.	.	.
16BB-/	.	.	.	.	.	.	.	.	.	.	.	.	.	.	.
16AA/JJ)	.	.	.	.	.	.	.	.	.	.	.	.	.	.	.
*Xrep	*	*	*	*	*	*	*	*	*	*	*	*	*	*	*
*rep	*	*	*	*	*	*	*	*	*	*	*	*	*	*	*
(16BB-/LL	.	2g 2e-/	.	2BB-/	-dzia	-wsta-	2B-\	-dzia	-wsta-	2e-/	-dzia	-wsta-	2g\	-dzia	-wsta-
16AA/	.	.	.	.	.	.	.	.	.	.	.	.	.	.	.
16BB-/	.	.	.	.	.	.	.	.	.	.	.	.	.	.	.
16AA/JJ)	.	.	.	.	.	.	.	.	.	.	.	.	.	.	.
*Xrep	*	*	*	*	*	*	*	*	*	*	*	*	*	*	*
*rep	*	*	*	*	*	*	*	*	*	*	*	*	*	*	*
(16BB-/LL	.	.	.	.	.	.	.	.	.	.	.	.	.	.	.
16AA/	.	.	.	.	.	.	.	.	.	.	.	.	.	.	.
16BB-/	.	.	.	.	.	.	.	.	.	.	.	.	.	.	.
16AA/JJ)	.	.	.	.	.	.	.	.	.	.	.	.	.	.	.
*Xrep	*	*	*	*	*	*	*	*	*	*	*	*	*	*	*
=19	=19	=19	=19	=19	=19	=19	=19	=19	=19	=19	=19	=19	=19	=19	=19
(16BB-/LL	.	2.a- 2.f/	.	(4BB-/	wcho-	-nie	2.d\	wcho-	-nie	2.f/	wcho-	-nie	2.a-\	wcho-	-nie
16AAn/	.	.	.	.	.	.	.	.	.	.	.	.	.	.	.
16BB-/	.	.	.	.	.	.	.	.	.	.	.	.	.	.	.
16AA/JJ)	.	.	.	.	.	.	.	.	.	.	.	.	.	.	.
*rep	*	*	*	*	*	*	*	*	*	*	*	*	*	*	*
(16BB-/LL	.	.	.	4F/)	.	.	.	.	.	.	.	.	.	.	.
16AA/	.	.	.	.	.	.	.	.	.	.	.	.	.	.	.
16BB-/	.	.	.	.	.	.	.	.	.	.	.	.	.	.	.
16AA/JJ)	.	.	.	.	.	.	.	.	.	.	.	.	.	.	.
*Xrep	*	*	*	*	*	*	*	*	*	*	*	*	*	*	*
*rep	*	*	*	*	*	*	*	*	*	*	*	*	*	*	*
(16BB-/LL	.	.	.	(4D/	-dzic	Stwo-	.	.	.	.	.	.	.	.	.
16AA/	.	.	.	.	.	.	.	.	.	.	.	.	.	.	.
16BB-/	.	.	.	.	.	.	.	.	.	.	.	.	.	.	.
16AA/JJ)	.	.	.	.	.	.	.	.	.	.	.	.	.	.	.
*Xrep	*	*	*	*	*	*	*	*	*	*	*	*	*	*	*
(16BB-/LL	.	4a- 4f/	.	4BB-/)	.	.	4d\	-dzic	stwo-	4f/	-dzic	Stwo-	4a-\	-dzic	stwo-
16AA/	.	.	.	.	.	.	.	.	.	.	.	.	.	.	.
16BB-/	.	.	.	.	.	.	.	.	.	.	.	.	.	.	.
16D/JJ)	.	.	.	.	.	.	.	.	.	.	.	.	.	.	.
!	!	!	!	!	!	!	!	!	!	!	!	!	!LO:LB:g=original	!	!
=20	=20	=20	=20	=20	=20	=20	=20	=20	=20	=20	=20	=20	=20	=20	=20
4E-\	.	2g 2e-/	.	(4E-\	bę-	-rze-	2e-\	bę-	-rze-	2e-/	bę-	-rze-	2g\	bę-	-rze-
4G\	.	.	.	4G\)	.	.	.	.	.	.	.	.	.	.	.
4B-\	.	4g 4e-/	.	(4B-\	-dzie	-nie	2E-/	-dzie	-nie	2e-/	-dzie	-nie	2g\	-dzie	-nie
4e-\	.	4r	.	4e-\)	.	.	.	.	.	.	.	.	.	.	.
=21	=21	=21	=21	=21	=21	=21	=21	=21	=21	=21	=21	=21	=21	=21	=21
*	*	*	*	*	*	*	*	*	*	*2\right	*	*	*	*	*
4c\	.	2cc 2g 2e-/	.	(4c\	w zło-	zspra-	2e-\	w zło-	zspra-	2g\	w zło-	zspra-	2cc\	w zło-	zspra-
4B-\	.	.	.	4B-\)	.	.	.	.	.	.	.	.	.	.	.
4A-\	.	2ee- 2cc\	.	(4A-\	-śći	-wic	2c\	-śći	-wic	2cc\	-śći	-wic	2ee-\	-śći	-wic
4G\	.	.	.	4G\)	.	.	.	.	.	.	.	.	.	.	.
!	!	!	!	!LO:LB:g=original	!	!	!	!	!	!LO:LB:g=original	!	!	!	!	!
=22	=22	=22	=22	=22	=22	=22	=22	=22	=22	=22	=22	=22	=22	=22	=22
*	*	*^	*	*	*	*	*	*	*	*	*	*	*	*	*
2F\	6 3	2dd 2a-\	2ryy	.	2F\	kto-	się	2d\	kto-	się	2a-/	kto-	się	2dd\	kto-	się
2A-\	6 4 3	2dd/	2cc 2f\	.	2A-\	-re	z swe-	2d\	-re	z swe-	2f/	-re	z swe-	2cc\	-re	z swe-
*	*	*v	*v	*	*	*	*	*	*	*	*	*	*	*	*	*
!	!	!	!	!	!	!	!LO:LB:g=original	!	!	!	!	!	!	!	!
=23	=23	=23	=23	=23	=23	=23	=23	=23	=23	=23	=23	=23	=23	=23	=23
!	!	!	!LO:DY:b=2:t=sf.:rj	!	!	!	!	!	!	!	!	!	!	!	!
2A-\	6 4 n2	2.dd 2.bn 2.f/	sf	(2A-\	Lu-	-go	2.f\	Lu-	-go	2.d/	Lu-	-go	2.bn\	Lu-	-go
4G\	6 4	.	.	4G\)	.	.	.	.	.	.	.	.	.	.	.
!	!	!	!	!LO:SIC:v:s=-dzie:verse1	!	!	!	!	!	!	!	!	!	!	!
4GG/	7 3	4ff 4dd 4g/	.	4GG/	-dzią	nie-	4d\	-dzie	nie-	4f/	-dzie	nie-	4dd\	-dzie	nie-
=24	=24	=24	=24	=24	=24	=24	=24	=24	=24	=24	=24	=24	=24	=24	=24
2AA-/	5_ 3_	2ee- 2cc\	.	2AA-/	czẏ-	-rzą-	2c\	czẏ-	-rzą-	2e-/	czẏ-	-rzą-	2cc\	czẏ-	-rzą-
2AA-/	.	2cc 2e-/	.	2AA-/	-nią	-du	2c\	-nią	-du	2e-/	-nią	-du	2cc\	-nią	-du
!	!	!	!	!	!	!	!	!	!	!	!	!	!LO:LB:g=original	!	!
=25	=25	=25	=25	=25	=25	=25	=25	=25	=25	=25	=25	=25	=25	=25	=25
4En\	6 -5_	2b- 2g/	.	4En\	w zło-	zspra-	2c\	w zło-	zsp[r]a-	2g/	w zło-	zspra-	2b-\	w zło-	zspra-
4C\	.	.	.	(4C\	.	.	.	.	.	.	.	.	.	.	.
4D\	.	2b- 2g/	.	4D\	-śći	-wic	2c\	-śći	-wic	2g/	-śći	-wic	2b-\	-śći	-wic
4E\	.	.	.	4E\)	.	.	.	.	.	.	.	.	.	.	.
!LO:LB:g=original	!	!LO:LB:g=original	!	!LO:LB:g=original	!	!	!	!	!	!	!	!	!	!	!
=26	=26	=26	=26	=26	=26	=26	=26	=26	=26	=26	=26	=26	=26	=26	=26
2F\	5 3	2a- 2f/	.	2F\	kto-	się	2c\	kto-	się	2f/	kto-	się	2a-\	kto-	się
2A-\	6 5 3	2f 2d/	.	2A-\	-re	z swe-	2c\	-re	z swe-	2d/	-re	z swe-	2f/	-re	z swe-
!	!	!	!	!	!	!	!	!	!	!LO:LB:g=original	!	!	!	!	!
=27	=27	=27	=27	=27	=27	=27	=27	=27	=27	=27	=27	=27	=27	=27	=27
*^	*	*	*	*	*	*	*	*	*	*	*	*	*	*	*
2.G/	2G\	6 4	2.e- 2.c/	.	2.G\	Lu-	-go	2.G/	Lu-	-go	2.c/	Lu-	-go	2.e-/	Lu-	-go
.	2GG\	.	.	.	.	.	.	.	.	.	.	.	.	.	.	.
4F/	.	.	4d 4Bn/	.	4GG/	-dzie	nie-	4G/	-dzie	nie-	4Bn/	-dzie	nie-	4d/	-dzie	nie-
!	!	!	!	!	!	!	!	!LO:LB:g=original	!	!	!	!	!	!	!	!
=28	=28	=28	=28	=28	=28	=28	=28	=28	=28	=28	=28	=28	=28	=28	=28	=28
4E-/	8C\L	.	4c'/	.	2C/	czẏ-	-rzą-	2G/	czẏ-	-rzą-	2c/	czẏ-	-rzą-	2c/	czẏ-	-rzą-
.	8BBn\	.	.	.	.	.	.	.	.	.	.	.	.	.	.	.
4ryy	8C\	.	(4a- 4f/	.	.	.	.	.	.	.	.	.	.	.	.	.
.	8BB\J	.	.	.	.	.	.	.	.	.	.	.	.	.	.	.
*	*rep	*	*	*	*	*	*	*	*	*	*	*	*	*	*	*
4E-/	8C\L	.	4g 4e-/	.	4C/	-nią	-du.	4C/	-nią	-du	4c/	-nią	-du	4c/	-nią	-du
.	8BB\	.	.	.	.	.	.	.	.	.	.	.	.	.	.	.
4ryy	8C\	.	4f 4d/)	.	4r	.	.	4r	.	.	4r	.	.	4r	.	.
.	8BB\J	.	.	.	.	.	.	.	.	.	.	.	.	.	.	.
*	*Xrep	*	*	*	*	*	*	*	*	*	*	*	*	*	*	*
*v	*v	*	*	*	*	*	*	*	*	*	*	*	*	*	*	*
=29	=29	=29	=29	=29	=29	=29	=29	=29	=29	=29	=29	=29	=29	=29	=29
!	!	!	!	!LO:TX:a:t=2	!	!	!LO:TX:a:t=2.	!	!	!LO:TX:a:t=2	!	!	!LO:TX:a:t=2.	!	!
8C\L	.	4e- 4c'/	.	0r	.	.	0r	.	.	0r	.	.	0r	.	.
8BBn\	.	.	.	.	.	.	.	.	.	.	.	.	.	.	.
8C\	.	(>4f 4A-</	.	.	.	.	.	.	.	.	.	.	.	.	.
8BB\J	.	.	.	.	.	.	.	.	.	.	.	.	.	.	.
*rep	*	*	*	*	*	*	*	*	*	*	*	*	*	*	*
8C\L	.	4e- 4G</	.	.	.	.	.	.	.	.	.	.	.	.	.
8BB\	.	.	.	.	.	.	.	.	.	.	.	.	.	.	.
8C\	.	4d 4Bn< 4F</)	.	.	.	.	.	.	.	.	.	.	.	.	.
8BB\J	.	.	.	.	.	.	.	.	.	.	.	.	.	.	.
*Xrep	*	*	*	*	*	*	*	*	*	*	*	*	*	*	*
=30	=30	=30	=30	=30	=30	=30	=30	=30	=30	=30	=30	=30	=30	=30	=30
2C\	.	2c 2E-</	.	.	.	.	.	.	.	.	.	.	.	.	.
!LO:TX:t=P:problem=fermata na kresce taktowej	!	!LO:TX:t=P:problem=fermata na kresce taktowej	!	!	!	!	!	!	!	!	!	!	!	!	!
2r	.	2r	.	.	.	.	.	.	.	.	.	.	.	.	.
==	==	==	==;	==	==	==	==	==	==	==	==	==	==	==	==
*-	*-	*-	*-	*-	*-	*-	*-	*-	*-	*-	*-	*-	*-	*-	*-
!!!system-decoration: [(g1)]{(s5,s6)}
!!!RDF**kern: > = above
!!!RDF**kern: < = below
!!!AIN: 1 bass 1 organ 2 soprn 1 tenor
!!!ENC: Katarzyna Serwa
!!!END: 2020-10-06
!!!ENC: Andrzej Kubiczek
!!!END: 2021-11-07
